!!!COM: Beethoven
!!!OTL: Acht Variationen uber "Une fievre brulante" aus "Richard Coeur de Lion" von A.E.M. Gretry
!!!Variation: Variation 4 a
**function	**harm	**kern	**kern
*	*	*clefG2	*clefG2
*	*	*k[b-e-a-]	*k[b-e-a-]
*M3/4	*M3/4	*M3/4	*M3/4
*c:	*c:	*c:	*c:
4T	.	4r	4g
=129	=129	=129	=129
2.T	.	2.c 2.e-	(4g
.	.	.	4ee-
.	.	.	4cc)
=130	=130	=130	=130
2.T	.	2.c 2.f 2.a-	(4cc
.	.	.	4ff
.	.	.	4ee-
=131	=131	=131	=131
2T	.	2.c 2.d 2.f 2.a-	4dd
.	.	.	4cc
4T	.	.	4b)
=132	=132	=132	=132
2T	.	2c 2e- 2g	(4dd
.	.	.	4cc)
4T	.	4e- 4g	4cc
=133	=133	=133	=133
2P	.	(2f 2a-	(2cc 2dd
4P	.	4g 4b-	4cc 4ee
=134	=134	=134	=134
2P	.	2a-	2cc 2ff
4P	.	4e) 4g	4cc) 4gg
=135	=135	=135	=135
2P	.	4f 4a-	(8ccL 8bb-
.	.	.	8aa-J
.	.	4r	8ggL
.	.	.	8ffJ
*	*	*^	*
4P	.	4F	4f	8ee-L
.	.	.	.	8ddJ)
=136	=136	=136	=136	=136
4D	.	(4e-	4.G	(4cc
4D	.	8d)	.	8b)
.	.	8r	8r	8r
*	*	*v	*v	*
*-	*-	*-	*-
!!!EMD: Edited in humdrumR 0.7.0.3 on 2024-01-19
